X:911
L:1/8
M:4/4
K:G
 G/G/G Bd gdBG | D/D/D FA dAFD | G/G/G Bd gdBG | c/B/A/G/ dD G2 G,2 :: dfeg fagb | dfeg f/g/a fd | 
 d/e/f/g/ e/f/g/a/ f/g/a/b/ g/a/b/g/ | d/e/f/d/ e/f/g/e/ f/g/a fd | g/a/b ge f/g/a fd | 
 e/f/g dB AGFD | G/G/G Bd gdBG | c/B/A/G/ dD G2 G,2 :|

